X:0438
T:Hey to Couper.
M:6/8
L:1/8
Q:3/8=120
I: :: ::
Z:Jack Campin * www.campin.me.uk * 2009
K:G
D|G>AG B2c|d2g   dBG| c2a  B2g   |ABG FED|
  GAG  B2c|d2g   dcB| BgB  Agf   |g3  G2::
d|gag b2c'|bd'c' bag| e2e  efg   |abg fed|
  gag b2c'|d'2c' bag|(efg) e/f/af|g3  G2:|

